img/client/1-1.svg

<svg fill="none" height="33" viewBox="0 0 33 33" width="33" xmlns="http://www.w3.org/2000/svg"><g fill="#fff" stroke="#fff"><path clip-rule="evenodd" d="m3.25031 1.25443c0-.2109.17823-.381871.39809-.381871h28.6631c.2199 0 .3981.170971.3981.381871v27.62207c0 .2109-.1782.3819-.3981.3819s-.3981-.171-.3981-.3819v-27.2402h-28.265c-.21986 0-.39809-.17097-.39809-.38187z" fill-rule="evenodd" stroke-linecap="round" stroke-linejoin="round" stroke-width=".5"/><path d="m3.6681 29.4348h.125v-.125l-.00001-23.75868 1.62588 1.62587c.20305.20306.53227.20306.73533 0 .20305-.20305.20305-.53227 0-.73533l-2.5135-2.5135c-.20305-.20305-.53227-.20305-.73533 0l-2.513494 2.5135c-.203056.20306-.203056.53228 0 .73533.203057.20306.532275.20306.735334 0l1.62587-1.62587v23.75868.125h.125z" stroke-width=".25"/><path d="m2.7522 29.704v.125h.125 23.8831l-1.6341 1.6257c-.2042.2031-.2042.5327 0 .7358.2038.2027.534.2027.7378 0l2.5266-2.5135c.2041-.2031.2041-.5327 0-.7358l-2.5266-2.5135c-.2038-.2028-.534-.2028-.7378 0-.2042.2031-.2042.5327 0 .7358l1.6341 1.6256h-23.8831-.125v.125z" stroke-width=".25"/><g clip-rule="evenodd" fill-rule="evenodd" stroke-linecap="round" stroke-linejoin="round" stroke-width=".5"><path d="m14.1624.988239c.1543.154241.1543.404311 0 .558551l-4.73945 4.7395c-.15424.15424-.40431.15424-.55855 0s-.15424-.40432 0-.55856l4.7395-4.739491c.1542-.154241.4043-.154241.5585 0z"/><path d="m32.4623 19.8149c.1542.1542.1542.4043 0 .5586l-4.3446 4.3445c-.1542.1542-.4043.1542-.5585 0-.1543-.1543-.1543-.4043 0-.5586l4.3445-4.3445c.1542-.1542.4043-.1542.5586 0z"/><path d="m20.0851.986466c.1552.153254.1568.403324.0035.558544l-10.26885 10.40059c-.15326.1552-.40333.1568-.55855.0035-.15522-.1532-.15681-.4033-.00355-.5585l10.26885-10.400576c.1533-.15522.4034-.156813.5586-.003558z"/><path d="m32.5938 13.2316c.1543.1543.1543.4044 0 .5586l-10.0056 10.0056c-.1542.1542-.4043.1542-.5585 0-.1543-.1542-.1543-.4043 0-.5586l10.0056-10.0056c.1542-.1542.4043-.1542.5585 0z"/><path d="m26.4084 1.12209c.153.15548.151.40555-.0045.55854l-16.45654 16.19327c-.15548.153-.40554.151-.55853-.0045s-.15098-.4056.0045-.5585l16.45657-16.19331c.1555-.152994.4055-.150977.5585.0045z"/><path d="m32.5939 7.04439c.1543.15424.1543.40432 0 .55856l-16.5882 16.58825c-.1542.1542-.4043.1542-.5585 0-.1543-.1543-.1543-.4043 0-.5586l16.5882-16.58821c.1542-.15424.4043-.15424.5585 0z"/><path d="m32.3306 1.11983c.1543.15424.1543.40431 0 .55856l-22.64422 22.64421c-.15424.1543-.40431.1543-.55855 0-.15424-.1542-.15424-.4043 0-.5585l22.64427-22.64427c.1542-.15424.4043-.15424.5585 0z"/></g></g></svg>

<svg width="33" height="33" viewBox="0 0 33 33" fill="none" xmlns="http://www.w3.org/2000/svg">
<path fill-rule="evenodd" clip-rule="evenodd" d="M3.25031 1.25443C3.25031 1.04353 3.42854 0.872559 3.6484 0.872559H32.3115C32.5314 0.872559 32.7096 1.04353 32.7096 1.25443V28.8765C32.7096 29.0874 32.5314 29.2584 32.3115 29.2584C32.0916 29.2584 31.9134 29.0874 31.9134 28.8765V1.6363H3.6484C3.42854 1.6363 3.25031 1.46533 3.25031 1.25443Z" fill="white" stroke="white" stroke-width="0.5" stroke-linecap="round" stroke-linejoin="round"/>
<path d="M3.6681 29.4348L3.7931 29.4348L3.7931 29.3098L3.79309 5.55112L5.41897 7.17699C5.62202 7.38005 5.95124 7.38005 6.1543 7.17699C6.35735 6.97394 6.35735 6.64472 6.1543 6.44166L3.6408 3.92816C3.43775 3.72511 3.10853 3.72511 2.90547 3.92816L0.391976 6.44166C0.18892 6.64472 0.18892 6.97394 0.391976 7.17699C0.595033 7.38005 0.924251 7.38005 1.12731 7.17699L2.75318 5.55112L2.75318 29.3098L2.75318 29.4348L2.87818 29.4348L3.6681 29.4348Z" fill="white" stroke="white" stroke-width="0.25"/>
<path d="M2.7522 29.704V29.829H2.8772L26.7603 29.829L25.1262 31.4547C24.922 31.6578 24.922 31.9874 25.1262 32.1905C25.33 32.3932 25.6602 32.3932 25.864 32.1905L28.3906 29.677C28.5947 29.4739 28.5947 29.1443 28.3906 28.9412L25.864 26.4277C25.6602 26.2249 25.33 26.2249 25.1262 26.4277C24.922 26.6308 24.922 26.9604 25.1262 27.1635L26.7603 28.7891L2.8772 28.7891H2.7522V28.9141V29.704Z" fill="white" stroke="white" stroke-width="0.25"/>
<path fill-rule="evenodd" clip-rule="evenodd" d="M14.1624 0.988239C14.3167 1.14248 14.3167 1.39255 14.1624 1.54679L9.42295 6.28629C9.26871 6.44053 9.01864 6.44053 8.8644 6.28629C8.71016 6.13205 8.71016 5.88197 8.8644 5.72773L13.6039 0.988239C13.7581 0.833998 14.0082 0.833998 14.1624 0.988239Z" fill="white" stroke="white" stroke-width="0.5" stroke-linecap="round" stroke-linejoin="round"/>
<path fill-rule="evenodd" clip-rule="evenodd" d="M32.4623 19.8149C32.6165 19.9691 32.6165 20.2192 32.4623 20.3735L28.1177 24.718C27.9635 24.8722 27.7134 24.8722 27.5592 24.718C27.4049 24.5637 27.4049 24.3137 27.5592 24.1594L31.9037 19.8149C32.0579 19.6607 32.308 19.6607 32.4623 19.8149Z" fill="white" stroke="white" stroke-width="0.5" stroke-linecap="round" stroke-linejoin="round"/>
<path fill-rule="evenodd" clip-rule="evenodd" d="M20.0851 0.986466C20.2403 1.13972 20.2419 1.38979 20.0886 1.54501L9.81975 11.9456C9.66649 12.1008 9.41642 12.1024 9.2612 11.9491C9.10598 11.7959 9.10439 11.5458 9.25765 11.3906L19.5265 0.990024C19.6798 0.834804 19.9299 0.833211 20.0851 0.986466Z" fill="white" stroke="white" stroke-width="0.5" stroke-linecap="round" stroke-linejoin="round"/>
<path fill-rule="evenodd" clip-rule="evenodd" d="M32.5938 13.2316C32.7481 13.3859 32.7481 13.636 32.5938 13.7902L22.5882 23.7958C22.434 23.95 22.1839 23.95 22.0297 23.7958C21.8754 23.6416 21.8754 23.3915 22.0297 23.2372L32.0353 13.2316C32.1895 13.0774 32.4396 13.0774 32.5938 13.2316Z" fill="white" stroke="white" stroke-width="0.5" stroke-linecap="round" stroke-linejoin="round"/>
<path fill-rule="evenodd" clip-rule="evenodd" d="M26.4084 1.12209C26.5614 1.27757 26.5594 1.52764 26.4039 1.68063L9.94736 17.8739C9.79188 18.0269 9.54182 18.0249 9.38883 17.8694C9.23584 17.7139 9.23785 17.4638 9.39333 17.3109L25.8499 1.11759C26.0054 0.964596 26.2554 0.966613 26.4084 1.12209Z" fill="white" stroke="white" stroke-width="0.5" stroke-linecap="round" stroke-linejoin="round"/>
<path fill-rule="evenodd" clip-rule="evenodd" d="M32.5939 7.04439C32.7482 7.19863 32.7482 7.44871 32.5939 7.60295L16.0057 24.1912C15.8515 24.3454 15.6014 24.3454 15.4472 24.1912C15.2929 24.0369 15.2929 23.7869 15.4472 23.6326L32.0354 7.04439C32.1896 6.89015 32.4397 6.89015 32.5939 7.04439Z" fill="white" stroke="white" stroke-width="0.5" stroke-linecap="round" stroke-linejoin="round"/>
<path fill-rule="evenodd" clip-rule="evenodd" d="M32.3306 1.11983C32.4849 1.27407 32.4849 1.52414 32.3306 1.67839L9.68638 24.3226C9.53214 24.4769 9.28207 24.4769 9.12783 24.3226C8.97359 24.1684 8.97359 23.9183 9.12783 23.7641L31.7721 1.11983C31.9263 0.96559 32.1764 0.96559 32.3306 1.11983Z" fill="white" stroke="white" stroke-width="0.5" stroke-linecap="round" stroke-linejoin="round"/>
</svg>
